X:23
T:Bunker Hill
S:Trad, arr. Paddy O'Brien 
R:reel
E:9
I:speed 350
M:C|
K:DMix
cA|GE~E2 ~D2DG|EGAB ~c2Bc|ABAG EF~G2|ABcA ~d2cA|\
GE~E2 ~D2 DG|EGAB ~c2Bc|*ABAG EF~G2|ABcA d2||\
cA|Gc ~c2 ec~c2|GccB cBAG|Ad~d2 fd~d2|AddB cBAG|*
(3EFG AB cAdB|cAdB ~c2Bc|dBcA BG~G2|ABcAd2||\
eg|fd~d2 fdad|fadf ~a2 gf|*ge~e2 gebe|gbeg ~b2 ag|\
fd~d2 fdad|dcAB ~c2 Bc|dBcA BG~G2|ABcA d2||**

